X: 15860
T: Gowlan Road, The
R: reel
M: 4/4
K: Gmajor
|:D2 Ac B2 Ac|BG G2 AEGE|DEGA B3 c|1 dBAG EGGE:|2 dBAd BGGA||
|:Bd d2 edgd|BddB A2 GA|Bd d2 edge|dBAd BG G2:|

